!!!SOCIAL_FUNCTION:	love songs
!!!PDT:	1943
!!!OTL: No_81_She_Is_Glad_to_See_Him.krn
!!!REG: British Columbia
**kern
*staff1
=1-
*clefG2
*k[b-e-a-d-]
*M2/4
4r
8A-/L
8A-/J
=2||
*M3/4
8a-/L
8a-/J
4a-/
4a-/
=3||
*M3/8
8a-/L
8a-/
8cc/J
=4||
*M2/4
4b-\
8.a-/L
16f/Jk
=5
4a-/
4r
=6
4a-/
4a-/
=7||
*M3/4
4a-/
4f/
12A-/L
8A-/
24A-/Jk
=8||
*M2/4
4f/
4f/
=9||
*M3/4
4B-/
8B-/L
16A-/Jk
16r
8F/L
8A-/J
=10!|:
4B-/
4A-/
4r
=11||
*M2/4
4A-/
4A-/
=12
4A-/
12F/L
12F/
12F/J
=13
4F/
8F/
8r
=14||
*M3/4
4F/
4F/
12A-/L
8A-/
24A-/Jk
=15||
*M2/4
4c/
4A-/
=16||
*M3/4
4.A-/
8F/
8F/
8r
=17
4a-/
4a-/
8a-/L
8b-/J
=18
4.b-\
8a-/
4a-/
=19||
*M2/4
4a-/
4r
=20||
*M3/4
4a-/
4.a-/
8a-/
=21||
*M2/4
8a-/L
[8f/J
4f/]
=22
4A-/
8A-/
8r
=23||
*M3/4
4f/
8f/L
8f/J
4f/
=24||
*M2/4
4B-/
4B-/
=25
4A-/
8F/L
8A-/J
==:|!
*-
